!!!!SEGMENT: pl-wnifc--13846--149_anonim--piesni-polskie-i-ruskie-ludu-galicyjskiego-149-czas-do-domu.krn
!!!kernsource:
!!!cenid: 18xx:3371
!!!COM: Anonim
!!!COM-rismID:
!!!CDT:
!!!CNT:
!!!GTL: Pieśni polskie i ruskie ludu galicyjskiego
!!!OTL: 149. Czas do domu
!!!PDT: 1833
!!!AGN:
!!!SMS-siglum: PL-Wnifc
!!!SMS-shelfmark: 13846
!!!SMS-shelfwork: 149 G
!!!NIFC-rismSourceID: 1001039682
!!!NIFC-islandoraID:
!!!URL-pdf-islandora:
!!!URL-scan:
!!!ONB-nifc:
!!!OMD: Moderato qasi Andante
!!!AIN: 2 empty
!!!key:
**kern	**kern	**dynam	**kern	**text
*part2	*part2	*part2	*part1	*part1
*staff3	*staff2	*	*staff1	*staff1
*clefF4	*clefG2	*	*clefG2	*
*Iempty	*Iempty	*	*Iempty	*
*I"	*I"	*	*I"	*
*k[]	*k[]	*	*k[]	*
*a:	*a:	*	*a:	*
*M3/4	*M3/4	*	*M3/4	*
=1-	=1-	=1-	=1-	=1-
2A/ 2AA/	8a/L 8e/ 8c/	.	8a/	Czas
.	8b/J 8g#X/	.	8b/	do
.	4cc/ 4a/	.	4cc\	do-
4F/ 4FF/	4dd\ 4a\	.	4dd\	-mu,
=2	=2	=2	=2	=2
2C/ 2CC/	2ee\ 2a\	.	2ee\	czas,
4r;	4r;	.	4r;	.
!!LO:LB:g=original
=3	=3	=3	=3	=3
*^	*	*	*	*
4B/ 4F/	4D\	8.ff\L 8.dd\	>	8.ff\	czas
.	.	16ee\Jk 16cc\	]	16ee\	do
4G#X/	4E\	4dd\ 4b\^<	.	(4dd\	do-
(<8e/L	4E\	8cc\L 8a\	.	8cc\)	.
8d\J)	.	8b\J 8g#X\`	.	8b\	-mu
*v	*v	*	*	*	*
=4	=4	=4	=4	=4
2c\ 2A\	2a/ 2e/	.	2a/	czas
4r;	4r;	.	4r;	.
!!LO:LB:g=original
=5!|:	=5!|:	=5!|:	=5!|:	=5!|:
4AA/	8ee\L 8cc\`	.	8ee\	bu-
.	8ee\J 8cc\`	.	8ee\	-de
4A\	(8ee\L 8cc\	.	(8ee\L	me-
.	8dd\ 8b\	.	8dd\	.
4A\	8ff\ 8dd\)	.	8ff\J)	.
.	8ee\J 8cc\`	.	8ee\	-ne
=6	=6	=6	=6	=6
(>4G#X\ (4GG#X\	(8ee\L 8cc\	.	8ee\	muż
.	8dd\J 8b\)	.	8dd\	mij
4E\) 4GG#\)	(4dd\ 4b\	.	(4dd\	by-
4E/ 4EE/	8cc\L 8a\)	.	8cc\L)	-ty,
.	8b\J 8g#X\	.	8b\`J	.
!!LO:PB:g=original
=7	=7	=7	=7	=7
4AA/ 4AAA/	8ee\L 8cc\	.	8ee\	ne-
.	8ee\J 8cc\	.	8ee\	-ma
(4AA/	(8ee\L 8cc\	.	(8ee\L	ko-
.	8dd\ 8b\	.	8dd\	.
4A\)	8ff\ 8dd\)	.	8ff\J)	.
.	8ee\J 8cc\	.	8ee\`	-mu
=8	=8	=8	=8	=8
*^	*	*	*	*
4G#X/	4E\	8ee\L 8cc\	.	8ee\	bo-
.	.	8dd\J 8b\	.	8dd\	-ro-
4EE/	2ryy	(4dd\ 4b\	.	(4dd\	-ny-
4E\	.	8cc/L 8a/)	.	8cc\L)	-ty,
.	.	8b/J 8g#X/`	.	8b\J	.
*v	*v	*	*	*	*
=9	=9	=9	=9	=9
4AA/ 4AAA/	8.a/L 8.e/ 8.c/	.	8.a/	czas
.	16b/Jk 16g#X/	.	16b/	do
4AA/	4cc/ 4a/	.	4cc\	do-
4AA/	4dd/ 4a/ 4f/	.	4dd\	-mu
=10	=10	=10	=10	=10
2AA/ 2AAA/	2ee/ 2cc/ 2a/ 2e/	.	(2ee\	czas,
4AA/ 4AAA/	4aa\ 4ee\ 4cc\ 4a\	.	4aa\)	.
!!LO:LB:g=original
=11	=11	=11	=11	=11
2AA/ 2AAA/	2ff\ 2dd\ 2a\ 2f\	.	2ff\	czas,
4AA/ 4AAA/	4dd/ 4a/ 4f/ 4d/	.	4dd\	czas,
=12	=12	=12	=12	=12
2AA/ 2AAA/	2ee\ 2cc\ 2a\ 2e\	.	2ee\	czas,
4r	4r	.	4r	.
=13	=13	=13	=13	=13
*^	*	*	*	*
4B/ 4F/	4F 4D\	(8ff\L 8dd\	.	8ff\	czas,
.	.	8ee\J 8cc\)	.	8ee\	do
4G#X/	4E\	4dd\ 4b\	.	(4dd\	do-
4d\ 4E\	4ryy	8.ccn/L 8.g#X/	>	8.cc\L)	-mu
.	.	16b\Jk	]	16b\Jk	.
!!LO:LB:g=original
=14	=14	=14	=14	=14	=14
2c/	2c 2A\	2a/ 2e/	.	2a/	czas.
4r	4ryy	4ryy	.	4r	.
*	*v	*v	*	*	*
=:|!	=:|!	=:|!	=:|!	=:|!
*-	*-	*-	*-	*-
!!!system-decoration: s1,{(s2,s3)}
!!!RDF**kern: > = above
!!!RDF**kern: < = below
!!!ENC: Leszek Kubiak
!!!END: 2021-11-12
